X:1
T:Title
%%score { ( 1 2 ) | ( 3 4 ) }
L:1/8
M:4/4
K:Eb
V:1 treble nm="Grand Piano"
V:2 treble 
V:3 bass 
V:4 bass 
V:1
 z4 z2[Q:1/4=88] z F | G2 G>G A2 AA | B e3 z2 z F | G2 G>G c2 B>G | [DF]6 EF | G2 G>G A2 AA | %6
[M:9/8] B2 B- B/B/ c2- cec |[M:4/4] [EGB]2 [B,E][CEF] [EG]2 [A,DF]>[A,DF] | [G,E]6 z2 | %9
 [DF][DF] [EG]2 [FA] [FA]2 [FA] | [EG]2 [EG]>[FA] [GB]4 | [DF][DF] [EG]2 [FA]3 [FA] | %12
 [EG]2 [EG]>[FA] [GB]4 | c2 c>c e2 dc | [Ac][GB][GB][EG] [GB]4 | c2 e>c [EGB]2 E-[CEA] | %16
 [B,EG][B,EG] [A,DF]2 [G,E]4 |] %17
V:2
 z4 z2 E2 | x8 | z4 z2 E2 | x8 | x8 | x8 |[M:9/8] x9 |[M:4/4] x8 | x8 | x8 | x8 | x8 | x8 | x8 | %14
 x8 | z4 z2 .G,2 | x8 |] %17
V:3
 z4 z2 G,A, | [E,B,E]2 [E,B,E]>[E,B,E] [F,B,D]2 [F,B,D][F,B,D] | [G,B,E] [G,B,E]3 z2 G,A, | %3
 [E,B,E]2 [E,B,E]>[E,B,E] [E,A,E]2 [E,G,E]>[E,B,E] | [B,,B,]6 [E,G,][E,A,E] | %5
 [E,B,E]2 [E,B,E]>[E,B,E] [F,B,D]2 [F,B,D][F,B,D] | %6
[M:9/8][K:treble] [G,E]2 [G,E]- [G,E]/[G,E]/ [A,E]2- [A,E][A,CE][A,EA] | %7
[M:4/4][K:bass] E,2 G,A, B,2 B,,>B,, | E,6 z2 | [B,,B,][B,,B,] [B,,B,]2 [B,,B,] [B,,B,]2 [B,,B,] | %10
 [E,B,]2 [E,B,]>[E,B,] [E,E]4 | [B,,B,][B,,B,] [B,,B,]2 [B,,B,]3 [B,,B,] | %12
 [E,B,]2 [E,B,]>[E,B,] [E,E]4 | [A,EA]2 [A,EA]>[A,EA] [A,CA]2 [A,DA][A,EA] | %14
 [E,E]2 [E,E][E,B,] [E,E]4 | [A,EA]2 [A,CA]>[A,EA][K:bass] E,2 E,A,, | B,,B,, B,,2 E,4 |] %17
V:4
 z4 z2 E,2 | x8 | z4 z2 E,2 | x8 | x8 | x8 |[M:9/8][K:treble] x9 |[M:4/4][K:bass] x8 | x8 | x8 | %10
 x8 | x8 | x8 | x8 | x8 | x4[K:bass] x4 | x8 |] %17

